static/img/kroki/10341e65e5c6b11d0890851ab1506e94.svg

<?xml version="1.0" encoding="us-ascii" standalone="no"?><svg xmlns="http://www.w3.org/2000/svg" xmlns:xlink="http://www.w3.org/1999/xlink" contentStyleType="text/css" height="152px" preserveAspectRatio="none" style="width:309px;height:152px;" version="1.1" viewBox="0 0 309 152" width="309px" zoomAndPan="magnify"><defs/><g><!--class azure_express_route_gateway--><g id="elem_azure_express_route_gateway"><rect codeLine="22" fill="#3D176E" height="39.7891" id="azure_express_route_gateway" rx="2.5" ry="2.5" style="stroke:#000D19;stroke-width:0.5;" width="295" x="7" y="7"/><ellipse cx="22" cy="26.8945" fill="#ADD1B2" rx="11" ry="11" style="stroke:#181818;stroke-width:1.0;"/><path d="M24.9688,32.5352 Q24.3906,32.832 23.75,32.9727 Q23.1094,33.1289 22.4063,33.1289 Q19.9063,33.1289 18.5781,31.4883 Q17.2656,29.832 17.2656,26.707 Q17.2656,23.582 18.5781,21.9258 Q19.9063,20.2695 22.4063,20.2695 Q23.1094,20.2695 23.75,20.4258 Q24.4063,20.582 24.9688,20.8789 L24.9688,23.5977 Q24.3438,23.0195 23.75,22.7539 Q23.1563,22.4727 22.5313,22.4727 Q21.1875,22.4727 20.5,23.5508 Q19.8125,24.6133 19.8125,26.707 Q19.8125,28.8008 20.5,29.8789 Q21.1875,30.9414 22.5313,30.9414 Q23.1563,30.9414 23.75,30.6758 Q24.3438,30.3945 24.9688,29.8164 L24.9688,32.5352 Z " fill="#000000"/><text fill="#D9B8FF" font-family="Helvetica" font-size="17" lengthAdjust="spacing" textLength="253" x="41" y="32.7798">azure_express_route_gateway</text></g><!--class azure_virtual_hub--><g id="elem_azure_virtual_hub"><rect codeLine="24" fill="#3D176E" height="39.7891" id="azure_virtual_hub" rx="2.5" ry="2.5" style="stroke:#000D19;stroke-width:0.5;" width="193" x="58" y="106.79"/><ellipse cx="73" cy="126.6845" fill="#ADD1B2" rx="11" ry="11" style="stroke:#181818;stroke-width:1.0;"/><path d="M75.9688,132.3252 Q75.3906,132.622 74.75,132.7627 Q74.1094,132.9189 73.4063,132.9189 Q70.9063,132.9189 69.5781,131.2783 Q68.2656,129.622 68.2656,126.497 Q68.2656,123.372 69.5781,121.7158 Q70.9063,120.0595 73.4063,120.0595 Q74.1094,120.0595 74.75,120.2158 Q75.4063,120.372 75.9688,120.6689 L75.9688,123.3877 Q75.3438,122.8095 74.75,122.5439 Q74.1563,122.2627 73.5313,122.2627 Q72.1875,122.2627 71.5,123.3408 Q70.8125,124.4033 70.8125,126.497 Q70.8125,128.5908 71.5,129.6689 Q72.1875,130.7314 73.5313,130.7314 Q74.1563,130.7314 74.75,130.4658 Q75.3438,130.1845 75.9688,129.6064 L75.9688,132.3252 Z " fill="#000000"/><text fill="#D9B8FF" font-family="Helvetica" font-size="17" lengthAdjust="spacing" textLength="151" x="92" y="132.5698">azure_virtual_hub</text></g><!--link azure_express_route_gateway to azure_virtual_hub--><g id="link_azure_express_route_gateway_azure_virtual_hub"><path codeLine="26" d="M154.5,47.22 C154.5,64.36 154.5,83.27 154.5,100.41 " fill="none" id="azure_express_route_gateway-to-azure_virtual_hub" style="stroke:#1A83AF;stroke-width:2.0;"/><polygon fill="#1A83AF" points="154.5,106.41,158.5,97.41,154.5,101.41,150.5,97.41,154.5,106.41" style="stroke:#1A83AF;stroke-width:2.0;"/></g><!--SRC=[XP9FQy904CNlVee5puAfjEgba0hINgJKtae9a-niifZiXjc9Lak_U_tJbZLRutNURsRU6wRG4WLMDMz5XLMAv7fkfKqD19M8YUncPajBegyKgD6uBSwjuQl00YeKZrYkaNK6RUArqDdAe7FYnfCU85lbP1iZJ-EPmBYzX8OzQbQ2Sp4pwRHXzCp8QJfHgassX_P7CXhVOO1PaaW_o70ubD6qZLnTrPdxZrZg7Oh8Fzh2CWOsWnL7gjFbWV1C1a5_zOiUdq5ARN9nwzLUJfx889tLbmL8kpdG2ahdht6CX9QtDSw2L3YTI3N-5tww16U7omdODOG9VjIqVvjaZp4cEJ1kO2i-Urzdr5eJDr0cHPCUjQxUmLi_YYUZUFu-k0_Rlm40]--></g></svg>

<svg xmlns="http://www.w3.org/2000/svg" width="309" height="152" viewBox="0 0 309 152"><rect width="295" height="39.789" x="7" y="7" fill="#3D176E" rx="2.5" ry="2.5" style="stroke:#000d19;stroke-width:.5"/><circle cx="22" cy="26.895" r="11" fill="#ADD1B2" style="stroke:#181818;stroke-width:1"/><path d="M24.969 32.535q-.578.297-1.219.438-.64.156-1.344.156-2.5 0-3.828-1.64-1.312-1.657-1.312-4.782t1.312-4.781q1.328-1.656 3.828-1.656.703 0 1.344.156.656.156 1.219.453v2.719q-.625-.578-1.219-.844-.594-.281-1.219-.281-1.343 0-2.031 1.078-.687 1.062-.687 3.156t.687 3.172q.688 1.062 2.031 1.062.625 0 1.219-.265.594-.281 1.219-.86z"/><text x="41" y="32.78" fill="#D9B8FF" font-family="Helvetica" font-size="17" textLength="253">azure_express_route_gateway</text><rect width="193" height="39.789" x="58" y="106.79" fill="#3D176E" rx="2.5" ry="2.5" style="stroke:#000d19;stroke-width:.5"/><circle cx="73" cy="126.684" r="11" fill="#ADD1B2" style="stroke:#181818;stroke-width:1"/><path d="M75.969 132.325q-.578.297-1.219.438-.64.156-1.344.156-2.5 0-3.828-1.64-1.312-1.657-1.312-4.782t1.312-4.781q1.328-1.656 3.828-1.656.703 0 1.344.156.656.156 1.219.453v2.719q-.625-.579-1.219-.844-.594-.281-1.219-.281-1.344 0-2.031 1.078-.687 1.062-.687 3.156t.687 3.172q.688 1.062 2.031 1.062.625 0 1.219-.265.594-.281 1.219-.86z"/><text x="92" y="132.57" fill="#D9B8FF" font-family="Helvetica" font-size="17" textLength="151">azure_virtual_hub</text><path fill="none" d="M154.5 47.22v53.19" style="stroke:#1a83af;stroke-width:2"/><path fill="#1A83AF" d="m154.5 106.41 4-9-4 4-4-4z" style="stroke:#1a83af;stroke-width:2"/></svg>
